assets/flags-color/Sk.svg

<svg xmlns="http://www.w3.org/2000/svg" viewBox="0 0 512 512"><path fill="#f5f5f5" d="M0 .281h512v170.48H0z"/><path fill="#ff4b55" d="M0 341.24h512v170.48H0z"/><path fill="#41479b" d="M0 170.76h512v170.48H0z"/><path fill="#ff4b55" d="M163.883 375.426c-3.66-2.102-89.698-52.145-89.698-129.064V141.227h185.533v105.135c0 76.919-86.038 126.962-89.698 129.064l-3.068 1.751-3.069-1.751z"/><path fill="#f5f5f5" d="M215.543 227.809l-29.155 3.84h-9.719V214.25h5.83l23.325 3.841-3.159-13.56 3.159-13.557-23.325 3.839h-5.83v-5.877l3.84-29.155-13.558 3.948-13.559-3.948 3.84 29.155v5.877H151.4l-23.323-3.839 3.158 13.557-3.158 13.56 23.323-3.841h5.832v17.399h-9.718l-29.155-3.84 3.948 13.559-3.948 13.558 29.155-3.84h9.718v44.752h19.437v-44.752h9.719l29.155 3.84-3.948-13.558z"/><path fill="#41479b" d="M166.951 277.285c-12.775 0-23.733 7.75-28.447 18.802-.83-.068-1.627-.249-2.475-.249-16.465 0-29.797 12.905-30.742 29.131 25.046 30.832 56.416 49.204 58.596 50.457l3.068 1.751 3.068-1.751c2.18-1.253 33.55-19.625 58.596-50.457-.944-16.227-14.277-29.131-30.742-29.131-.848 0-1.644.181-2.475.249-4.714-11.052-15.672-18.802-28.447-18.802z"/><path fill="#f5f5f5" d="M253.533 147.412v98.951c0 74.213-86.582 123.688-86.582 123.688s-86.582-49.475-86.582-123.688v-98.951h173.164m12.369-12.369H68v111.32c0 80.465 89.025 132.262 92.814 134.428l6.137 3.506 6.137-3.506c3.789-2.167 92.814-53.963 92.814-134.428v-111.32z"/></svg>

<svg xmlns="http://www.w3.org/2000/svg" x="0" y="0" enable-background="new 0 0 512 512" version="1.1" viewBox="0 0 512 512" xml:space="preserve"><path fill="#F5F5F5" d="M0 .281H512V170.761H0z"/><path fill="#FF4B55" d="M0 341.24H512V511.72H0z"/><path fill="#41479B" d="M0 170.76H512V341.24H0z"/><path fill="#FF4B55" d="M163.883 375.426c-3.66-2.102-89.698-52.145-89.698-129.064V141.227h185.533v105.135c0 76.919-86.038 126.962-89.698 129.064l-3.068 1.751-3.069-1.751z"/><path fill="#F5F5F5" d="M215.543 227.809 186.388 231.649 176.669 231.649 176.669 214.25 182.499 214.25 205.824 218.091 202.665 204.531 205.824 190.974 182.499 194.813 176.669 194.813 176.669 188.936 180.509 159.781 166.951 163.729 153.392 159.781 157.232 188.936 157.232 194.813 151.4 194.813 128.077 190.974 131.235 204.531 128.077 218.091 151.4 214.25 157.232 214.25 157.232 231.649 147.514 231.649 118.359 227.809 122.307 241.368 118.359 254.926 147.514 251.086 157.232 251.086 157.232 295.838 176.669 295.838 176.669 251.086 186.388 251.086 215.543 254.926 211.595 241.368z"/><path fill="#41479B" d="M166.951 277.285c-12.775 0-23.733 7.75-28.447 18.802-.83-.068-1.627-.249-2.475-.249-16.465 0-29.797 12.905-30.742 29.131 25.046 30.832 56.416 49.204 58.596 50.457l3.068 1.751 3.068-1.751c2.18-1.253 33.55-19.625 58.596-50.457-.944-16.227-14.277-29.131-30.742-29.131-.848 0-1.644.181-2.475.249-4.714-11.052-15.672-18.802-28.447-18.802z"/><path fill="#F5F5F5" d="M253.533 147.412v98.951c0 74.213-86.582 123.688-86.582 123.688s-86.582-49.475-86.582-123.688v-98.951h173.164m12.369-12.369H68v111.32c0 80.465 89.025 132.262 92.814 134.428l6.137 3.506 6.137-3.506c3.789-2.167 92.814-53.963 92.814-134.428v-111.32z"/></svg>
